X: 8433
T: Crabs In The Skillet
R: jig
M: 6/8
K: Bminor
|:FBB cde|efd e3|cff edc|fed cBA|
F2 B cde|efd e3|ec/d/e agf|ecA B2A:|
|:F2B Bcd|eAc BAF|EcB Bcd|ecA F2E|
F2B Bcd|eAc F3|ecf e2c|1 ecA B2A:|2 ecA FBd||
|:Bdf Bdf|e3 fec|B3 cfe|cBA Fcd|
Bdf Bdf|e3 fec|d3 cfe|cBA B3|
|:Bdf Bdf|e3 fec|d3 cfe|cBA FEd|
Bcd cde|def ef=g|fBA fec|fec B3||

